src/ui/public/images/kibana.svg

<svg xmlns="http://www.w3.org/2000/svg" width="147" height="51" viewBox="0 0 147 51">
  <g fill="#FFF" fill-rule="evenodd">
    <path fill-rule="nonzero" d="M59.3,36.99 L59.3,30.29 L61.4,30.09 L65.4,37.09 L69.5,37.09 L64.5,28.29 L69.3,20.59 L65.3,20.59 L61.4,26.99 L59.4,27.19 L59.4,13.59 L55.8,13.59 L55.8,36.99 C55.7,36.99 59.3,36.99 59.3,36.99 Z M72.3,36.99 L75.9,36.99 L75.9,20.49 L72.3,20.49 L72.3,36.99 Z M72.3,17.69 L75.9,17.69 L75.9,13.89 L72.3,13.89 L72.3,17.69 Z M88,20.19 C86.1,20.19 83.9,21.19 83.9,21.19 L83.9,13.69 L80.3,13.69 L80.3,37.09 C80.3,37.09 84.6,37.49 86.3,37.49 C92.2,37.49 94.4,35.49 94.4,28.59 C94.4,22.39 92.5,20.19 88,20.19 Z M86.3,34.19 C85.6,34.19 83.8,34.09 83.8,34.09 L83.8,24.09 C83.8,24.09 85.7,23.39 87.5,23.39 C89.7,23.39 90.7,24.89 90.7,28.59 C90.7,32.59 90,34.19 86.3,34.19 Z M110.2,25.59 C110.2,21.79 108.5,20.09 104.5,20.09 C101.5,20.09 97.9,20.99 97.9,20.99 L98,23.49 C98,23.49 102,23.19 104.2,23.19 C105.8,23.19 106.6,23.79 106.6,25.59 L106.6,26.79 L102.3,27.19 C98.8,27.49 96.8,28.69 96.8,32.19 C96.8,35.59 98.5,37.49 101.7,37.49 C104.4,37.49 107,36.29 107,36.29 C108.2,37.29 109.4,37.49 111.4,37.49 L111.5,34.79 C110.5,34.69 110.1,34.29 110,33.29 L110.2,25.59 L110.2,25.59 Z M106.6,29.29 L106.6,33.69 C106.6,33.69 104.4,34.39 102.5,34.39 C101.1,34.39 100.5,33.49 100.5,31.99 C100.5,30.49 101.3,29.79 102.8,29.69 L106.6,29.29 Z M118.3,36.99 L118.3,24.19 C118.3,24.19 120.1,23.29 122,23.29 C124.5,23.29 124.9,24.89 124.9,28.19 L124.9,36.99 L128.5,36.99 L128.5,28.09 C128.5,22.69 127.4,20.09 122.8,20.09 C120.7,20.09 118.2,21.49 118.2,21.49 L118.2,20.49 L114.6,20.49 L114.6,36.99 L118.3,36.99 Z M144.9,25.59 C144.9,21.79 143.2,20.09 139.2,20.09 C136.2,20.09 132.6,20.99 132.6,20.99 L132.7,23.49 C132.7,23.49 136.7,23.19 138.9,23.19 C140.5,23.19 141.3,23.79 141.3,25.59 L141.3,26.79 L137,27.19 C133.5,27.49 131.5,28.69 131.5,32.19 C131.5,35.59 133.2,37.49 136.4,37.49 C139.1,37.49 141.7,36.29 141.7,36.29 C142.9,37.29 144.1,37.49 146.1,37.49 L146.2,34.79 C145.2,34.69 144.8,34.29 144.7,33.29 L144.9,25.59 L144.9,25.59 Z M141.3,29.29 L141.3,33.69 C141.3,33.69 139.1,34.39 137.2,34.39 C135.8,34.39 135.2,33.49 135.2,31.99 C135.2,30.49 136,29.79 137.5,29.69 L141.3,29.29 Z"/>
    <path d="M0.750017394,23.0519672 C7.6588047,23.0519672 14.1515341,20.7004737 19.8163223,23.7158704 L40,0 L5.56352045e-15,0 L5.56352045e-15,47 L-1.42108547e-14,21.7132994 C0.250469631,21.7078687 0.498156265,21.694292 0.750017394,21.694292 L0.750017394,23.0519672 Z" opacity=".7"/>
    <path d="M3.96024794e-14,44.5777029 L0,51 L40,51 C37.7622183,39.3330986 30.1863657,29.5040499 19.8418504,24 L3.96024794e-14,44.5777029 Z" opacity=".7"/>
    <path d="M3.90346229e-14,44.5790612 L0,51 L7.02086525,51 L26,28.3480908 C26,28.3480908 24.7392108,27.2953665 22.9524061,26.0592645 C21.5858645,25.0961916 19.5573398,24 19.5573398,24 L3.90346229e-14,44.5790612 Z" opacity=".5"/>
    <path d="M0.756969314,19 C0.502773682,19 0.252791237,19.0135665 0,19.0189932 L0,47 L20,23.7333689 C14.2827049,20.7202384 7.72979426,19 0.756969314,19"/>
  </g>
</svg>

<?xml version="1.0" encoding="UTF-8"?>
<svg viewBox="0 0 147 51" xmlns="http://www.w3.org/2000/svg">
<g fill="#FFF" fill-rule="evenodd">
<path d="m59.3 36.99v-6.7l2.1-0.2 4 7h4.1l-5-8.8 4.8-7.7h-4l-3.9 6.4-2 0.2v-13.6h-3.6v23.4h3.5zm13 0h3.6v-16.5h-3.6v16.5zm0-19.3h3.6v-3.8h-3.6v3.8zm15.7 2.5c-1.9 0-4.1 1-4.1 1v-7.5h-3.6v23.4s4.3 0.4 6 0.4c5.9 0 8.1-2 8.1-8.9 0-6.2-1.9-8.4-6.4-8.4zm-1.7 14c-0.7 0-2.5-0.1-2.5-0.1v-10s1.9-0.7 3.7-0.7c2.2 0 3.2 1.5 3.2 5.2 0 4-0.7 5.6-4.4 5.6zm23.9-8.6c0-3.8-1.7-5.5-5.7-5.5-3 0-6.6 0.9-6.6 0.9l0.1 2.5s4-0.3 6.2-0.3c1.6 0 2.4 0.6 2.4 2.4v1.2l-4.3 0.4c-3.5 0.3-5.5 1.5-5.5 5 0 3.4 1.7 5.3 4.9 5.3 2.7 0 5.3-1.2 5.3-1.2 1.2 1 2.4 1.2 4.4 1.2l0.1-2.7c-1-0.1-1.4-0.5-1.5-1.5l0.2-7.7zm-3.6 3.7v4.4s-2.2 0.7-4.1 0.7c-1.4 0-2-0.9-2-2.4s0.8-2.2 2.3-2.3l3.8-0.4zm11.7 7.7v-12.8s1.8-0.9 3.7-0.9c2.5 0 2.9 1.6 2.9 4.9v8.8h3.6v-8.9c0-5.4-1.1-8-5.7-8-2.1 0-4.6 1.4-4.6 1.4v-1h-3.6v16.5h3.7zm26.6-11.4c0-3.8-1.7-5.5-5.7-5.5-3 0-6.6 0.9-6.6 0.9l0.1 2.5s4-0.3 6.2-0.3c1.6 0 2.4 0.6 2.4 2.4v1.2l-4.3 0.4c-3.5 0.3-5.5 1.5-5.5 5 0 3.4 1.7 5.3 4.9 5.3 2.7 0 5.3-1.2 5.3-1.2 1.2 1 2.4 1.2 4.4 1.2l0.1-2.7c-1-0.1-1.4-0.5-1.5-1.5l0.2-7.7zm-3.6 3.7v4.4s-2.2 0.7-4.1 0.7c-1.4 0-2-0.9-2-2.4s0.8-2.2 2.3-2.3l3.8-0.4z" fill-rule="nonzero"/>
<path d="m0.75002 23.052c6.9088 0 13.402-2.3515 19.066 0.6639l20.184-23.716h-40v47l-1.9774e-14 -25.287c0.25047-0.0054307 0.49816-0.019007 0.75002-0.019007v1.3577z" opacity=".7"/>
<path d="m3.9602e-14 44.578l-3.9602e-14 6.4223h40c-2.2378-11.667-9.8136-21.496-20.158-27l-19.842 20.578z" opacity=".7"/>
<path d="m3.9035e-14 44.579l-3.9035e-14 6.4209h7.0209l18.979-22.652s-1.2608-1.0527-3.0476-2.2888c-1.3665-0.96307-3.3951-2.0593-3.3951-2.0593l-19.557 20.579z" opacity=".5"/>
<path d="m0.75697 19c-0.2542 0-0.50418 0.013566-0.75697 0.018993v27.981l20-23.267c-5.7173-3.0131-12.27-4.7334-19.243-4.7334"/>
</g>
</svg>
